X:1
T:P6 10
T:P6 No.10 
%%score 1 2
L:1/8
M:4/4
K:C
V:1 bass nm="Piano" snm="Pno."
V:2 bass nm="大提琴" snm="Vc."
V:1
 z8 |[Q:1/4=80] C,,4 C,,4 | A,4 E,4 | C4 A,4 | B,4 C2 B,2 | A,4 E,4 | A,4 E,4 | C4 A,4 | %8
 G,4 ^F,2 B,2 | E,6 z2 | B,4 ^G,2 E,2 | A,4 C2 A,2 | B,4 E,2 ^G,2 | A,2 E,2 C,2 B,,2 | A,,4 E,,4 | %15
 C,4 A,,2 C,2 | E,4 D,2 B,,2 | A,,2 z2 A,,2 z2 | A,,2 z2 z4 |] %19
V:2
 z8 | C,,4 C,,4 | A,4 E,4 | C4 A,4 | B,4 C2 B,2 | A,4 E,4 | A,4 E,4 | C4 A,4 | G,4 ^F,2 B,2 | %9
 E,6 z2 | B,4 ^G,2 E,2 | A,4 C2 A,2 | B,4 E,2 ^G,2 | A,2 E,2 C,2 B,,2 | A,,4 E,,4 | C,4 A,,2 C,2 | %16
 E,4 D,2 B,,2 | A,,2 z2 A,,2 z2 | A,,2 z2 z4 |] %19

